!!!COM: Bach, Johann Sebastian
!!!CDT: 1685/3//-1750/7/28/
!!!OTL@@DE: O Haupt voll Blut und Wunden
!!!OTL@EN:  O sacred head now wounded
!!!OPR: Christmas Oratorio
!!!AGN: 4-Part Chorale
!!!SCT: BH 345
!!!SCT: BWV 248
**harm	**root	**kern	**kern	**kern	**kern
!	!	!bass	!tenor	!alto	!soprno
*	*Iorgan	*Iorgan	*Iorgan	*Iorgan	*Iorgan
*	*	*clefF4	*clefF4	*clefF4	*clefF4
*M4/4	*M4/4	*M4/4	*M4/4	*M4/4	*M4/4
*met(c)	*met(c)	*met(c)	*met(c)	*met(c)	*met(c)
*MM56	*MM56	*MM56	*MM56	*MM56	*MM56
*k[f#c#g#d#a#e#]	*k[f#c#g#d#a#e#]	*k[f#c#g#d#a#e#]	*k[f#c#g#d#a#e#]	*k[f#c#g#d#a#e#]	*k[f#c#g#d#a#e#]
*d#:	*d#:	*d#:	*d#:	*d#:	*d#:
*>[A,A,B]	*>[A,A,B]	*>[A,A,B]	*>[A,A,B]	*>[A,A,B]	*>[A,A,B]
*>A	*>A	*>A	*>A	*>A	*>A
V7	4EE	4A#	4c##	8a#	4a#
.	.	.	.	8g#	.
=1	=1	=1	=1	=1	=1
VI	4FF	4B	4d#	8f#	4dd#
.	.	.	.	8g#	.
-VII	4GG	4c#	4e#	8g#	4cc#
.	.	.	.	8a#	.
VI7b	8FF	8d#	8f#	8a#	4b
iio	8BB	8e#	8g#	8g#	.
III	4CC	4f#	4c#	8g#	4a#
.	.	.	.	8f#	.
=2	=2	=2	=2	=2	=2
iv	2DD	2B	8d#	4f#	2g#
.	.	.	8c##	.	.
.	.	.	4d#	8e#	.
.	.	.	.	8d#	.
V	4EE	4A#;	4c##;	4e#;	4a#;
V	4EE	4A#	4c##	4a#	4ee#
=3	=3	=3	=3	=3	=3
i	4AA	8d#	8d#	4a#	4ff#
.	.	8c#	8e#	.	.
VI	4FF	8B	4f#	4dd#	4ff#
.	.	8A#	.	.	.
ii7D	4BB	8G#	4b	4dd#	8ee#
.	.	8E#	.	.	16ff#
.	.	.	.	.	16gg#
V7	4EE	4A#	8a#	4cc##	4ee#
.	.	.	8g#	.	.
=4	=4	=4	=4	=4	=4
i	2.AA	2.D#;	2.f#;	2.a#;	2.dd#;
=:|!	=:|!	=:|!	=:|!	=:|!	=:|!
*>B	*>B	*>B	*>B	*>B	*>B
i	4AA	4d#	4a#	8dd#	4ff#
.	.	.	.	8cc#	.
=5	=5	=5	=5	=5	=5
iiob	4BB	4G#	8g#	4b	8ee#
.	.	.	8f#	.	8dd#
v	4EE	4A#	4e#	8a#	4cc#
.	.	.	.	8g#	.
VI	4FF	8B	8d#	4f#	4dd#
.	.	8A#	8c#	.	.
iiob	4BB	4G#	8B	4b	4ee#
.	.	.	8c#	.	.
=6	=6	=6	=6	=6	=6
VIb	4FF	8D#	4d#	4b	2ff#
.	.	8E#	.	.	.
III	4CC	4F#	8c#	8a#	.
.	.	.	8B	8g#	.
III	4CC	4F#;	4c#;	4a#;	4ff#;
III	4CC	4F#	4f#	4a#	4cc#
!!linebreak: 2
=7	=7	=7	=7	=7	=7
VI	4FF	8B	8f#	4b	4dd#
.	.	8A#	8g#	.	.
V7b/IV	4AA	8G#	4a#	8e	4cc#
.	.	8F##	.	8d#	.
iv	8DD	4G#	8g#	8d#	8b
vii/IV	8CC#	.	8f##	8c#	8a#
iv	8DD	4G#	8g#	8d#	4b
vii7Dc	8GG#	.	8c##	8g#	.
=8	=8	=8	=8	=8	=8
I	2.AA	2.D#;	2.d#;	2.f##;	2.a#;
V7b/-VII	4DD	4B#	4d#	4g#	4ff#
=9	=9	=9	=9	=9	=9
-VII	4GG	4c#	8c#	4g#	8ee#
.	.	.	8d#	.	8ff#
-VII	4GG	8c#	4e#	4cc#	4gg#
.	.	8B#	.	.	.
IIIb	4CC	4.A#	8f#	8cc#	4ff#
.	.	.	8g#	8b#	.
V	4EE	.	4a#	4cc#	4ee#
.	.	8G#	.	.	.
=10	=10	=10	=10	=10	=10
i7	4AA	8F#	4a#	4cc#	2dd#
.	.	8D#	.	.	.
V/-VII	4DD	4G#	4g#	4b#	.
-VII	4GG	4C#;	4g#;	4cc#;	4ee#;
III	4CC	8F#	4f#	4cc#	4a#
.	.	8E#	.	.	.
=11	=11	=11	=11	=11	=11
VIb	8FF	8D#	8f#	8f#	4b
iio	8BB	8E#	8e#	8g#	.
ib	4AA	[4F#	8e#	4f#	4a#
.	.	.	8d#	.	.
ii7D	4BB	8F#]	4d#	4B	4g#
.	.	[8E#	.	.	.
-VIIb	8GG	8E#]	8c#	4g#	8cc#
ivc	8DD	8D#	8d#	.	8b
=12	=12	=12	=12	=12	=12
V7b	4EE	4C##	4e#	4g#	2.a#;
i	4AA	4D#	4d#	4f#	.
V	4EE	4A#;	4c##;	4e#;	.
==	==	==	==	==	==
*-	*-	*-	*-	*-	*-
!!chor2scor: -l 2 -s 0.6 -o %b.pmx
!!!YEC: Copyright 2003 by Craig Stuart Sapp
!!!license: GNU General Public License (http://www.gnu.org/copyleft/gpl.html)
!!!SMA: 371 Bach Chorales, edited by Ludwig Erk, C.F. Peters
!!!PDT: 1850, 1865
!!!ONB: Harmony and Root analysis done manually by Craig Sapp
